material/.icons/material/movie-search-outline.svg

<svg xmlns="http://www.w3.org/2000/svg" viewBox="0 0 24 24"><path d="M11 20H4c-1.1 0-2-.9-2-2V6c0-1.1.9-2 2-2h1l2 4h3L8 4h2l2 4h3l-2-4h2l2 4h3l-2-4h4v9c-.5-.8-1.2-1.5-2-2v-1H5.8L4 6.5V18h6.2c.2.7.4 1.4.8 2m9.3-1.1c.4-.7.7-1.5.7-2.4 0-2.5-2-4.5-4.5-4.5S12 14 12 16.5s2 4.5 4.5 4.5c.9 0 1.7-.2 2.4-.7l3.1 3.1 1.4-1.4-3.1-3.1m-3.8.1c-1.4 0-2.5-1.1-2.5-2.5s1.1-2.5 2.5-2.5 2.5 1.1 2.5 2.5-1.1 2.5-2.5 2.5z"/></svg>

<?xml version="1.0" encoding="UTF-8"?><!DOCTYPE svg PUBLIC "-//W3C//DTD SVG 1.1//EN" "http://www.w3.org/Graphics/SVG/1.1/DTD/svg11.dtd"><svg xmlns="http://www.w3.org/2000/svg" xmlns:xlink="http://www.w3.org/1999/xlink" version="1.1" id="mdi-movie-search-outline" width="24" height="24" viewBox="0 0 24 24"><path d="M11 20H4C2.9 20 2 19.1 2 18V6C2 4.9 2.9 4 4 4H5L7 8H10L8 4H10L12 8H15L13 4H15L17 8H20L18 4H22V13C21.5 12.2 20.8 11.5 20 11V10H5.8L4 6.5V18H10.2C10.4 18.7 10.6 19.4 11 20M20.3 18.9C20.7 18.2 21 17.4 21 16.5C21 14 19 12 16.5 12S12 14 12 16.5 14 21 16.5 21C17.4 21 18.2 20.8 18.9 20.3L22 23.4L23.4 22L20.3 18.9M16.5 19C15.1 19 14 17.9 14 16.5S15.1 14 16.5 14 19 15.1 19 16.5 17.9 19 16.5 19Z" /></svg>
